!!!OTL: Jesus, das Bluemelein
!!!ARE: Europa, Mitteleuropa, Deutschland
!!!SCT: A0585C
!!!YEM: Copyright 1995, estate of Helmut Schaffrath.
**kern
*ICvox
*Ivox
!! Mixed meters:  4/2; 4/1; 3/1
*M3/1
*k[b-e-]
*g:
{2g
2g
2g
=1
1d
1b-
1a
1g
=2
1f#
2r}
{2f#
2f#
2f#
=3
1g
1e
2f#
2f#
=4
*M4/2
1g
2r}
{2g
=5
*M3/1
1b
2dd
1b
2b
=6
2g
2a
2b
1cc
2cc
=7
*M4/1
1b
1a
1g
2r}
{2g
=8
2g
2g
1a
1e
2f#
2a
=9
*M4/2
0g
=10
2r}
==
!!!AGN: Romanze, Ballade, Lied, religioeses Lied
!! Corners kath. Gsgb 1625 No. 28.
!!!ONB: ESAC (Essen Associative Code) Database: ALTDEU
!!!AMT: irregular
!!!AIN: vox
!!!EED: Helmut Schaffrath
!!!EEV: 1.0
*-
